svgs/light/table-tennis-paddle-ball.svg

<svg xmlns="http://www.w3.org/2000/svg" viewBox="0 0 512 512"><!--! Font Awesome Pro 6.0.0-alpha3 by @fontawesome - https://fontawesome.com License - https://fontawesome.com/license (Commercial License) --><path d="M416 320c-52.99 0-95.99 42.1-95.99 95.1c0 52.1 43 95.1 95.99 95.1C469 511.1 512 468.1 512 416C512 363 469 320 416 320zM416 480c-35.28 0-63.98-28.71-63.98-63.1s28.7-64 63.98-64S480 380.7 480 416S451.3 480 416 480zM99.63 140.9l49.65-49.63c36.5-36.47 83.34-57.5 131.9-59.19c53.53-2.031 104.6 18.06 142.7 56.09c51.09 51.13 69.03 125.8 46.78 194.9c-2.719 8.406 1.906 17.44 10.31 20.12c8.406 2.75 17.41-1.906 20.12-10.31c25.97-80.53 5.052-167.6-54.6-227.3c-44.44-44.41-102.9-67.85-166.4-65.47C223.4 2.094 168.9 26.47 126.7 68.69L50.5 144.8C32.37 162.9 22.41 187 22.41 212.7c0 25.66 9.967 49.75 28.09 67.88l54.95 54.96l-94.18 83.13c-6.75 5.875-10.92 14.75-11.23 23.75c-.3125 8.531 2.857 16.6 9.045 22.85l37.75 37.74C52.7 508.8 60.52 512 68.8 512h1.078c9.031-.3125 17.59-4.436 23.49-11.15l83.2-94.25l54.95 54.94c10.06 10.06 21.86 17.59 35.05 22.37c8.344 3 17.5-1.25 20.5-9.562c3.031-8.312-1.25-17.5-9.562-20.5c-8.75-3.188-16.62-8.219-23.34-14.94l-54.94-54.94c-6.344-6.312-14.5-10.66-23.16-9.375c-8.812 .2813-17.81 4.406-23.47 10.81l-83.16 94.91l-37-37.66l94.25-83.19C133.1 353.8 137.2 344.8 137.5 336c.25-8.594-3.094-16.81-9.406-23.12L73.16 257.9C61.06 245.8 54.41 229.8 54.41 212.7S61.06 179.5 73.16 167.4L77 163.6l199.7 199.8C279.8 366.4 283.9 368 288 368s8.188-1.562 11.31-4.688c6.25-6.25 6.25-16.38 0-22.62L99.63 140.9z"/></svg>

<svg xmlns="http://www.w3.org/2000/svg" viewBox="0 0 512 512"><!-- Font Awesome Pro 6.0.0-alpha2 by @fontawesome - https://fontawesome.com License - https://fontawesome.com/license (Commercial License) --><path d="M416.007 320.004C363.021 320.004 320.027 363.004 320.027 416.004C320.027 469 363.021 512 416.007 512C468.997 512 511.99 469 511.99 416.004C511.99 363.004 468.997 320.004 416.007 320.004ZM416.007 480C380.728 480 352.027 451.293 352.027 416.004S380.728 352.004 416.007 352.004S479.99 380.715 479.99 416.004S451.286 480 416.007 480ZM99.618 140.945L149.271 91.312C185.771 54.844 232.615 33.812 281.208 32.125C334.74 30.094 385.771 50.187 423.865 88.219C474.958 139.344 492.896 214.031 470.646 283.094C467.927 291.5 472.552 300.531 480.958 303.219C489.365 305.969 498.365 301.312 501.083 292.906C527.052 212.375 506.146 125.281 446.49 65.594C402.052 21.188 343.583 -2.25 280.083 0.125C223.365 2.094 168.865 26.469 126.646 68.688L50.521 144.781C32.396 162.906 22.396 187.031 22.396 212.656C22.396 238.312 32.396 262.406 50.521 280.531L105.458 335.5L11.333 418.594C4.583 424.469 0.333 433.375 0.021 442.375C-0.292 450.906 2.927 459 9.115 465.25L46.833 502.969C52.708 508.812 60.458 512 68.74 512H69.865C78.896 511.688 87.458 507.594 93.365 500.875L176.583 406.594L231.521 461.531C241.583 471.594 253.365 479.125 266.552 483.906C274.896 486.906 284.052 482.656 287.052 474.344C290.083 466.031 285.802 456.844 277.49 453.844C268.74 450.656 260.865 445.625 254.146 438.906L199.208 383.969C192.865 377.656 184.708 373.313 176.052 374.594C167.24 374.875 158.24 379 152.583 385.406L69.427 480.312L32.427 442.656L126.677 359.469C133.083 353.781 137.208 344.781 137.49 336C137.74 327.406 134.396 319.188 128.083 312.875L73.146 257.906C61.052 245.812 54.396 229.75 54.396 212.656S61.052 179.5 73.146 167.406L76.99 163.562L276.708 363.312C279.833 366.438 283.927 368 288.021 368S296.208 366.438 299.333 363.312C305.583 357.062 305.583 346.937 299.333 340.688L99.618 140.945Z"/></svg>
